X:2516
T:Bromsberrow Heath
T:Beatrice Hill's 4 Hand Reel
C:anon.
O:England
R:Reel
F:http://abc.musicaviva.com/tunes/england/bromsberrow-heath/bromsberrow-heath-1.abc
%Posted at abcusers Jan 2nd 2001 by Johnny Adams.
M:4/4
L:1/4
K:D
F/2G/2 |:B A A/2F/2 A/2d/2 | c B B e/2d/2 | c/2d/2 e/2f/2 g/2e/2 c/2e/2 | e/2d/2c/2B/2 A F/2G/2 | B A A/2F/2 A/2d/2 | c B B e/2d/2 |
c/2d/2 e/2f/2 g/2e/2 c/2e/2 |1 e d d F/2G/2 :|2 e d d a |:b a/2f/2 d/2f/2 a | a g/2f/2 g e/2f/2 | g/2f/2 e/2d/2 c/2d/2 e/2g/2 |
g f/2e/2 f a | b a/2f/2 d/2f/2 a | a g/2f/2 g e/2f/2 | g/2f/2 e/2d/2 c/2d/2 e |1 e d d a :|2 e d d |]
W:
W:
W:  From Musica Viva - http://www.musicaviva.com
W:  the Internet center for free sheet music downloads.
